X: 1165
T: İslamoğlu
C: Cemal Altıniğne
O: Turkey
F: http://compmusic.upf.edu/node/140
N: tahir--turku--aksak--islamoglu--afyon
N: makam= tahir
N: form= turku
N: usul= aksak = 9/8
M: 9/8
L: 1/16
K: C _2/4B ^3/4f  
Q: 1/4=156
%%MIDI tuningsystem comma53
GABc d2_7/8ed dccB c2c2 c2 | GA Bcd2 _7/8eddc cBcd B2BA  | 
w:  ARANAĞME  |   | 
cBA2 A2A2 A3A A2A2 A2 | GA Bcd2 _7/8eddc cBc2 c2c2  | 
w:   |  ARANAĞME  | 
GABc d2_7/8ed dccB cdB2 BA | cB A2A2 A2A3Ac'2 c'2c'b  | 
w:   |   | 
c'2z2 g2c'2 c'2c'2 b2b2 a2 | a2 a2a2 a2g2 fge=f efd2  | 
w:  *  İs lam_ oğ lu  *  *  da   |  ku le  *  de  ya par   | 
z2fg a2{c'}_ba g2fg e2e2 d2 | z2 dcd2 eddc cBc2 c2c2  | 
w:  ta *  şı *  *  *  nan  *  *  a man    |  Göz *  le rim  *  dol *  du   | 
z2Bc d2ed dccB cdB2 BA | BA A2A2 A2A3AA2 A2A2  | 
w:  al  *  ka *  *  nı *  nan  *  a man  *  da   |  ya *  şı *  *  nan    | 
z2dc d2ed dccB c2c2 c2 | z2 Bcd2 eddc cBcd B2BA  | 
w:  Göz *  le rim  *  dol *  du   |  al  *  ka *  *  nı *  nan  *  a man  *  da   | 
BAA2 A2A2 A3A c'2c'2 c'b | c'2 z2g2 c'2c'2 c'2b2 b2a2  | \
w:  ya *  şı *  *  nan   *  SAZ  |  *  Ne re  gi dem  *  *  de   | 
a2a2 a2a2 g2fg e=fef d2 | 
w:  bu  ta *  *  lih siz   | 
z2 fga2 {c'}_bag2 fge2 e2d2  | z2dc d2ed dccB c2c2 c2 | 
w:  ba *  şı *  *  *  nan  *  *  a man    |  Be ri  gel  *  *  be *  ri  *  gel   | 
z2 Bcd2 eddc cBcd B2BA  | BAA2 A2A2 A3A A2A2 A2 | 
w:  be ri  gel  de  *  ben  *  *  *  a  |  dam  *  *  *  ye mem    | 
z2 dcd2 eddc cBc2 c2c2  | z2Bc d2ed dccB cdB2 BA | 
w:  Be ri  gel  *  *  be *  ri  *  gel   |  be ri  gel  de  *  ben  *  *  *  a  | 
BA A2A2 A2A3Ac2 c2cB  | z2dc d2ed dccB c2c2 c2 | 
w:  dam  *  *  *  ye mem   *  SAZ  |  Şu *  nun  *  *  şöy *  *  *  le  | 
z2 Bcd2 eddc cBcd B2BA  | BAA2 A2A2 A3A A2A2 A2 | 
w:  si *  ne  de  *  ben  *  *  *  yâ  |  rim  *  *  *  de mem    | 
z2 dcd2 eddc cBc2 c2c2  | z2Bc d2ed dccB cdB2 BA | 
w:  Şu *  nun  *  *  şöy *  *  *  le  |  si *  ne  de  *  ben  *  *  *  yâ  | 
BA A2A2 A2A3AA2 A2A2  | GABc d2_7/8ed dccB c2c2 c2 | 
w:  rim  *  *  *  de mem    |  ARANAĞME  | 
GA Bcd2 _7/8eddc cBcd B2BA  | cBA2 A2A2 A3A A2A2 A2 | 
w:   |   | 
GA Bcd2 _7/8eddc cBc2 c2c2  | GABc d2_7/8ed dccB cdB2 BA | 
w:  ARANAĞME  |   | 
cB A2A2 A2A3Ac'2 c'2c'b  | c'2z2 g2c'2 c'2c'2 b2b2 a2 | \
w:   |  *  İs lam_ oğ lu  *  *  da   | 
a2 a2a2 a2g2 fge=f efd2  | 
w:  ku le  *  de  ya par   | 
z2fg a2{c'}_ba g2fg e2e2 d2 | z2 dcd2 eddc cBc2 c2c2  | 
w:  ta *  şı *  *  *  nan  *  *  a man    |  Göz *  le rim  *  dol *  du   | 
z2Bc d2ed dccB cdB2 BA | BA A2A2 A2A3AA2 A2A2  | 
w:  al  *  ka *  *  nı *  nan  *  a man  *  da   |  ya *  şı *  *  nan    | 
z2dc d2ed dccB c2c2 c2 | z2 Bcd2 eddc cBcd B2BA  | 
w:  Göz *  le rim  *  dol *  du   |  al  *  ka *  *  nı *  nan  *  a man  *  da   | 
BAA2 A2A2 A3A c'2c'2 c'b | c'2 z2g2 c'2c'2 c'2b2 b2a2  | \
w:  ya *  şı *  *  nan   *  SAZ  |  *  Ne re  gi dem  *  *  de   | 
a2a2 a2a2 g2fg e=fef d2 | 
w:  bu  ta *  *  lih siz   | 
z2 fga2 {c'}_bag2 fge2 e2d2  | z2dc d2ed dccB c2c2 c2 | 
w:  ba *  şı *  *  *  nan  *  *  a man    |  Be ri  gel  *  *  be *  ri  *  gel   | 
z2 Bcd2 eddc cBcd B2BA  | BAA2 A2A2 A3A A2A2 A2 | 
w:  be ri  gel  de  *  ben  *  *  *  a  |  dam  *  *  *  ye mem    | 
z2 dcd2 eddc cBc2 c2c2  | z2Bc d2ed dccB cdB2 BA | 
w:  Be ri  gel  *  *  be *  ri  *  gel   |  be ri  gel  de  *  ben  *  *  *  a  | 
BA A2A2 A2A3Ac2 c2cB  | z2dc d2ed dccB c2c2 c2 | 
w:  dam  *  *  *  ye mem   *  SAZ  |  Şu *  nun  *  *  şöy *  *  *  le  | 
z2 Bcd2 eddc cBcd B2BA  | BAA2 A2A2 A3A A2A2 A2 | 
w:  si *  ne  de  *  ben  *  *  *  yâ  |  rim  *  *  *  de mem    | 
z2 dcd2 eddc cBc2 c2c2  | z2Bc d2ed dccB cdB2 BA | 
w:  Şu *  nun  *  *  şöy *  *  *  le  |  si *  ne  de  *  ben  *  *  *  yâ  | 
BA A2A2 A2A3AA2 A2A2  | |


